X: 42682
T: Whistler At The Wake, The
R: jig
M: 6/8
K: Dmajor
|:A|F2A AFA|Bdd efg|fed ~B3|AFE EDE|
F2A AFA|Bdd efg|fed ~B3|AFD D2:|
|:e|fed BdB|AFE EDF|AFB AFB|AFB AFA|
fed BdB|AFE E2e|fed BdB|AFD D2:|

